src/next/cmd/lc_wrapon.svg

<?xml version="1.0" encoding="UTF-8" standalone="no"?>
<svg
   xmlns:dc="http://purl.org/dc/elements/1.1/"
   xmlns:cc="http://creativecommons.org/ns#"
   xmlns:rdf="http://www.w3.org/1999/02/22-rdf-syntax-ns#"
   xmlns:svg="http://www.w3.org/2000/svg"
   xmlns="http://www.w3.org/2000/svg"
   xmlns:sodipodi="http://sodipodi.sourceforge.net/DTD/sodipodi-0.dtd"
   xmlns:inkscape="http://www.inkscape.org/namespaces/inkscape"
   height="24"
   width="24"
   version="1.1"
   id="svg47"
   sodipodi:docname="lc_wrapon.svg"
   inkscape:version="0.92.4 (unknown)">
  <metadata
     id="metadata53">
    <rdf:RDF>
      <cc:Work
         rdf:about="">
        <dc:format>image/svg+xml</dc:format>
        <dc:type
           rdf:resource="http://purl.org/dc/dcmitype/StillImage" />
        <dc:title></dc:title>
      </cc:Work>
    </rdf:RDF>
  </metadata>
  <defs
     id="defs51" />
  <sodipodi:namedview
     pagecolor="#ffffff"
     bordercolor="#666666"
     borderopacity="1"
     objecttolerance="10"
     gridtolerance="10"
     guidetolerance="10"
     inkscape:pageopacity="0"
     inkscape:pageshadow="2"
     inkscape:window-width="1366"
     inkscape:window-height="714"
     id="namedview49"
     showgrid="true"
     inkscape:zoom="1.84375"
     inkscape:cx="10.969707"
     inkscape:cy="11.506836"
     inkscape:window-x="0"
     inkscape:window-y="28"
     inkscape:window-maximized="1"
     inkscape:current-layer="g72">
    <inkscape:grid
       type="xygrid"
       id="grid55" />
  </sodipodi:namedview>
  <filter
     id="a">
    <feGaussianBlur
       stdDeviation="2.0786429"
       id="feGaussianBlur2" />
  </filter>
  <radialGradient
     id="b"
     cx="109.42462"
     cy="127.15892"
     gradientTransform="matrix(1,0,0,0.9996653,-8.000004,3.603016)"
     gradientUnits="userSpaceOnUse"
     r="139.55859">
    <stop
       offset="0"
       stop-color="#b7b8b9"
       id="stop5" />
    <stop
       offset=".18851049"
       stop-color="#ececec"
       id="stop7" />
    <stop
       offset=".25718147"
       stop-color="#fafafa"
       id="stop9" />
    <stop
       offset=".30111277"
       stop-color="#fff"
       id="stop11" />
    <stop
       offset=".5313"
       stop-color="#fafafa"
       id="stop13" />
    <stop
       offset=".8449"
       stop-color="#ebecec"
       id="stop15" />
    <stop
       offset="1"
       stop-color="#e1e2e3"
       id="stop17" />
  </radialGradient>
  <clipPath
     id="c">
    <path
       d="M 0,0 H 128 V 128 H 0 Z"
       id="path20"
       inkscape:connector-curvature="0" />
  </clipPath>
  <g
     clip-path="url(#c)"
     transform="matrix(0.1875,0,0,0.1875,-0.4999995,-0.42498563)"
     id="g45">
    <path
       style="opacity:0.55390296;filter:url(#a)"
       inkscape:connector-curvature="0"
       d="m 5.9999943,6.6 0.04,116.69993 H 122.77992 L 122.73992,6.6 Z"
       id="path23" />
    <path
       style="fill:#ffffff"
       inkscape:connector-curvature="0"
       d="M 7.9999943,7.6 V 119.59993 H 119.23617 l 0.83598,-0.004 0.008,-0.8398 L 119.99992,7.6 Z"
       id="path25" />
    <path
       inkscape:connector-curvature="0"
       style="fill:url(#b)"
       d="m 14.999994,13.2 c -0.551,0 -1,0.449185 -1,1 l -0.18,99.57993 99.109926,0.02 c 0.69134,0 1.35,-1.06653 1.35,-1.84375 L 114.13992,14.4 c 0,-0.550815 -0.448,-1 -1,-1 z"
       id="path27" />
    <path
       style="fill:#0066ff;fill-rule:evenodd"
       inkscape:connector-curvature="0"
       d="M 88.174619,94.846118 C 87.74685,85.327008 87.913248,69.81468 86.955874,64.432306 80.764205,44.986723 80.687458,50.802596 78.668519,43.680309 c -1.94666,6.292789 -0.29165,9.293039 1.94997,15.037659 1.021633,6.786647 -1.874818,14.713931 -2.924971,17.744533 C 62.58783,68.475672 49.790785,60.938807 46.006575,41.575024 c 0,-1.80456 -0.974986,-8.421142 -0.974986,-8.421142 -6.452409,9.178232 -6.151639,15.157635 -3.168691,25.864881 5.952573,18.465901 13.401143,22.276736 29.026358,27.970166 0.969211,0.288544 3.866985,0.402874 4.387429,1.503765 0.522797,0.851616 0.02813,4.216563 0.03034,6.353424 z"
       id="path29" />
    <g
       style="fill:#404040;fill-opacity:0.83921599"
       id="g43">
      <path
         inkscape:connector-curvature="0"
         d="m -109.33327,18.266661 h 90.666611 v 5.333331 h -90.666611 z"
         transform="scale(-1,1)"
         id="path31" />
      <path
         inkscape:connector-curvature="0"
         d="m -109.33327,98.266609 h 90.666611 v 5.333331 h -90.666611 z"
         transform="scale(-1,1)"
         id="path33" />
      <path
         inkscape:connector-curvature="0"
         d="m 16,32 v 5.333984 H 26.666016 V 32 Z m 80,0 v 5.333984 h 10.66602 V 32 Z"
         transform="translate(2.666664,2.26659)"
         id="path35" />
      <path
         inkscape:connector-curvature="0"
         d="m 16,48 v 5.333984 H 26.666016 V 48 Z m 80,0 v 5.333984 h 10.66602 V 48 Z"
         transform="translate(2.666664,2.26659)"
         id="path37" />
      <path
         inkscape:connector-curvature="0"
         d="m 16,64 v 5.333984 H 26.666016 V 64 Z m 80,0 v 5.333984 h 10.66602 V 64 Z"
         transform="translate(2.666664,2.26659)"
         id="path39" />
      <path
         inkscape:connector-curvature="0"
         d="m 16,80 v 5.333984 H 26.666016 V 80 Z m 80,0 v 5.333984 h 10.66602 V 80 Z"
         transform="translate(2.666664,2.26659)"
         id="path41" />
    </g>
  </g>
</svg>

<?xml version="1.0" encoding="UTF-8" standalone="no"?>
<!-- Created with Inkscape (http://www.inkscape.org/) -->

<svg
   xmlns:dc="http://purl.org/dc/elements/1.1/"
   xmlns:cc="http://creativecommons.org/ns#"
   xmlns:rdf="http://www.w3.org/1999/02/22-rdf-syntax-ns#"
   xmlns:svg="http://www.w3.org/2000/svg"
   xmlns="http://www.w3.org/2000/svg"
   xmlns:xlink="http://www.w3.org/1999/xlink"
   xmlns:sodipodi="http://sodipodi.sourceforge.net/DTD/sodipodi-0.dtd"
   xmlns:inkscape="http://www.inkscape.org/namespaces/inkscape"
   width="128"
   height="128"
   id="svg2606"
   sodipodi:version="0.32"
   inkscape:version="0.92.3 (unknown)"
   version="1.0"
   sodipodi:docname="lc_wrapon.svg"
   inkscape:output_extension="org.inkscape.output.svgz.inkscape"
   inkscape:export-filename="/home/rizmut/Dokumen/Rizmut/Github/libreoffice-style-karasa-jaga/build/next/cmd/lc_wrapon.png"
   inkscape:export-xdpi="18"
   inkscape:export-ydpi="18">
  <defs
     id="defs2608">
    <linearGradient
       id="linearGradient6111">
      <stop
         style="stop-color:#9c0f0f;stop-opacity:1;"
         offset="0"
         id="stop6113" />
      <stop
         id="stop7088"
         offset="0.5"
         style="stop-color:#e81919;stop-opacity:1;" />
      <stop
         style="stop-color:#cd1313;stop-opacity:1;"
         offset="1"
         id="stop6115" />
    </linearGradient>
    <radialGradient
       id="XMLID_8_"
       cx="102"
       cy="112.3047"
       r="139.55859"
       gradientUnits="userSpaceOnUse">
      <stop
         offset="0"
         style="stop-color:#b7b8b9;stop-opacity:1;"
         id="stop41" />
      <stop
         offset="0.18851049"
         style="stop-color:#ECECEC"
         id="stop47" />
      <stop
         offset="0.25718147"
         style="stop-color:#FAFAFA"
         id="stop49" />
      <stop
         offset="0.30111277"
         style="stop-color:#FFFFFF"
         id="stop51" />
      <stop
         offset="0.5313"
         style="stop-color:#FAFAFA"
         id="stop53" />
      <stop
         offset="0.8449"
         style="stop-color:#EBECEC"
         id="stop55" />
      <stop
         offset="1"
         style="stop-color:#E1E2E3"
         id="stop57" />
    </radialGradient>
    <filter
       inkscape:collect="always"
       id="filter2770">
      <feGaussianBlur
         inkscape:collect="always"
         stdDeviation="2.0786429"
         id="feGaussianBlur2772" />
    </filter>
    <radialGradient
       inkscape:collect="always"
       xlink:href="#XMLID_8_"
       id="radialGradient2306"
       gradientUnits="userSpaceOnUse"
       gradientTransform="matrix(1,0,0,0.9996653,-8.0000037,3.6030161)"
       cx="109.42462"
       cy="127.15892"
       r="139.55859"
       fx="109.42462"
       fy="127.15892" />
    <clipPath
       clipPathUnits="userSpaceOnUse"
       id="clipPath5152">
      <rect
         style="opacity:1;fill:#692608;fill-opacity:1;stroke:none;stroke-width:1.13385832;stroke-linecap:round;stroke-linejoin:round;stroke-miterlimit:4;stroke-dasharray:none;stroke-dashoffset:0;stroke-opacity:1"
         id="rect5154"
         width="128"
         height="128"
         x="0"
         y="0"
         ry="0" />
    </clipPath>
  </defs>
  <sodipodi:namedview
     id="base"
     pagecolor="#ffffff"
     bordercolor="#666666"
     borderopacity="1.0"
     inkscape:pageopacity="0.0"
     inkscape:pageshadow="2"
     inkscape:zoom="2.8284271"
     inkscape:cx="36.518824"
     inkscape:cy="46.214876"
     inkscape:document-units="px"
     inkscape:current-layer="g5148"
     width="128px"
     height="128px"
     showgrid="true"
     inkscape:grid-points="true"
     showguides="true"
     inkscape:guide-bbox="true"
     inkscape:window-width="1366"
     inkscape:window-height="706"
     inkscape:window-x="0"
     inkscape:window-y="0"
     inkscape:snap-bbox="true"
     inkscape:object-nodes="true"
     gridtolerance="10"
     inkscape:window-maximized="1"
     inkscape:snap-page="true"
     inkscape:snap-smooth-nodes="true">
    <inkscape:grid
       type="xygrid"
       id="grid5197"
       spacingx="5.33333"
       spacingy="5.33333"
       empspacing="1" />
  </sodipodi:namedview>
  <metadata
     id="metadata2611">
    <rdf:RDF>
      <cc:Work
         rdf:about="">
        <dc:format>image/svg+xml</dc:format>
        <dc:type
           rdf:resource="http://purl.org/dc/dcmitype/StillImage" />
        <dc:title></dc:title>
      </cc:Work>
    </rdf:RDF>
  </metadata>
  <g
     inkscape:label="Livello 1"
     inkscape:groupmode="layer"
     id="layer1">
    <g
       id="g5148"
       clip-path="url(#clipPath5152)"
       transform="translate(-2.6666643,-2.26659)">
      <path
         inkscape:connector-curvature="0"
         sodipodi:nodetypes="ccccc"
         id="path7865"
         d="m 5.9999943,6.6 0.04,116.69993 H 122.77992 L 122.73992,6.6 Z"
         style="opacity:0.55390332;fill:#000000;fill-opacity:1;filter:url(#filter2770)" />
      <path
         inkscape:connector-curvature="0"
         sodipodi:nodetypes="ccccccc"
         id="path34"
         d="m 7.9999943,7.6 0,111.99993 111.2361757,0 0.83598,-0.004 0.008,-0.8398 L 119.99992,7.6 Z"
         style="fill:#ffffff;fill-opacity:1" />
      <path
         inkscape:connector-curvature="0"
         sodipodi:nodetypes="cccccccc"
         id="path59"
         d="m 14.999994,13.2 c -0.551,0 -1,0.449185 -1,1 l -0.18,99.57993 99.109926,0.02 c 0.69134,0 1.35,-1.06653 1.35,-1.84375 L 114.13992,14.4 c 0,-0.550815 -0.448,-1 -1,-1 z"
         style="fill:url(#radialGradient2306);fill-opacity:1" />
      <path
         sodipodi:nodetypes="cccccccccccc"
         inkscape:connector-curvature="0"
         id="path2049"
         d="M 88.174619,94.846118 C 87.74685,85.327008 87.913248,69.81468 86.955874,64.432306 80.764205,44.986723 80.687458,50.802596 78.668519,43.680309 c -1.94666,6.292789 -0.29165,9.293039 1.94997,15.037659 1.021633,6.786647 -1.874818,14.713931 -2.924971,17.744533 C 62.58783,68.475672 49.790785,60.938807 46.006575,41.575024 c 0,-1.80456 -0.974986,-8.421142 -0.974986,-8.421142 -6.452409,9.178232 -6.151639,15.157635 -3.168691,25.864881 5.952573,18.465901 13.401143,22.276736 29.026358,27.970166 0.969211,0.288544 3.866985,0.402874 4.387429,1.503765 0.522797,0.851616 0.02813,4.216563 0.03034,6.353424 z"
         style="fill:#0066ff;fill-rule:evenodd;stroke:none;stroke-width:6.12645721px;stroke-linecap:butt;stroke-linejoin:miter;stroke-opacity:1" />
      <rect
         transform="scale(-1,1)"
         ry="0"
         rx="0"
         y="18.266661"
         x="-109.33327"
         height="5.3333306"
         width="90.666611"
         id="rect2970"
         style="opacity:1;fill:#404040;fill-opacity:0.83921569;stroke:none;stroke-width:6.17102623;stroke-linecap:round;stroke-linejoin:bevel;stroke-miterlimit:4;stroke-dasharray:none;stroke-dashoffset:0;stroke-opacity:1" />
      <rect
         style="opacity:1;fill:#404040;fill-opacity:0.83921569;stroke:none;stroke-width:6.17102623;stroke-linecap:round;stroke-linejoin:bevel;stroke-miterlimit:4;stroke-dasharray:none;stroke-dashoffset:0;stroke-opacity:1"
         id="rect3130"
         width="90.666611"
         height="5.3333306"
         x="-109.33327"
         y="98.266609"
         rx="0"
         ry="0"
         transform="scale(-1,1)" />
      <path
         style="opacity:1;fill:#404040;fill-opacity:0.83921569;stroke:none;stroke-width:6.17102623;stroke-linecap:round;stroke-linejoin:bevel;stroke-miterlimit:4;stroke-dasharray:none;stroke-dashoffset:0;stroke-opacity:1"
         d="M 16 32 L 16 37.333984 L 26.666016 37.333984 L 26.666016 32 L 16 32 z M 96 32 L 96 37.333984 L 106.66602 37.333984 L 106.66602 32 L 96 32 z "
         transform="translate(2.6666643,2.26659)"
         id="rect2051" />
      <path
         style="opacity:1;fill:#404040;fill-opacity:0.83921569;stroke:none;stroke-width:6.17102623;stroke-linecap:round;stroke-linejoin:bevel;stroke-miterlimit:4;stroke-dasharray:none;stroke-dashoffset:0;stroke-opacity:1"
         d="M 16 48 L 16 53.333984 L 26.666016 53.333984 L 26.666016 48 L 16 48 z M 96 48 L 96 53.333984 L 106.66602 53.333984 L 106.66602 48 L 96 48 z "
         transform="translate(2.6666643,2.26659)"
         id="rect3124" />
      <path
         style="opacity:1;fill:#404040;fill-opacity:0.83921569;stroke:none;stroke-width:6.17102623;stroke-linecap:round;stroke-linejoin:bevel;stroke-miterlimit:4;stroke-dasharray:none;stroke-dashoffset:0;stroke-opacity:1"
         d="M 16 64 L 16 69.333984 L 26.666016 69.333984 L 26.666016 64 L 16 64 z M 96 64 L 96 69.333984 L 106.66602 69.333984 L 106.66602 64 L 96 64 z "
         transform="translate(2.6666643,2.26659)"
         id="rect2053" />
      <path
         style="opacity:1;fill:#404040;fill-opacity:0.83921569;stroke:none;stroke-width:6.17102623;stroke-linecap:round;stroke-linejoin:bevel;stroke-miterlimit:4;stroke-dasharray:none;stroke-dashoffset:0;stroke-opacity:1"
         d="M 16 80 L 16 85.333984 L 26.666016 85.333984 L 26.666016 80 L 16 80 z M 96 80 L 96 85.333984 L 106.66602 85.333984 L 106.66602 80 L 96 80 z "
         transform="translate(2.6666643,2.26659)"
         id="rect2055" />
    </g>
  </g>
</svg>
